X:100
T:All Night in the Sugar Bush
R:jig
C:Bruce Osborne  --  Apr.20 1997
M:6/8
L:1/8
Z:abc by Bruce Osborne - bosborne@kos.net
K:F
AG|FEF CA,C|FAc dcA|FAc agf|e3 bge|!
ceg bge|ege bge|edc BA^G|A3 A2G|!
FEF CA,C|FAc dcA|FAc agf|d3 d2e|!
fgf fed|cdc cBA|edc BAG|F4:|!
|:AG|FAF AcA|dcA F2A|cdc cAF|E3 E2D|!
C^B,C EDE|GFG e2d|cdc BA^G|A3 A2G|!
FGF AcA|dcA F2A|cfg agf|d3 d2e|!
fgf fed|cdc cBA|edc BAG|F4:|!
